front/assets/images/stat-services-et-ressources-consultes.svg

<svg width="96" height="96" viewBox="0 0 96 96" fill="none" xmlns="http://www.w3.org/2000/svg">
<path fill-rule="evenodd" clip-rule="evenodd" d="M70.8 91.1995C70.1383 91.1995 69.6 90.6611 69.6 89.9995C69.6 89.3377 70.1383 88.7995 70.8 88.7995C71.4617 88.7995 72 89.3377 72 89.9995C72 90.6611 71.4617 91.1995 70.8 91.1995Z" fill="#FFF7DB"/>
<path fill-rule="evenodd" clip-rule="evenodd" d="M80.4 9.59946C79.7383 9.59946 79.2 9.06114 79.2 8.39946C79.2 7.73773 79.7383 7.19946 80.4 7.19946C81.0617 7.19946 81.6 7.73773 81.6 8.39946C81.6 9.06114 81.0617 9.59946 80.4 9.59946Z" fill="#FFF7DB"/>
<path fill-rule="evenodd" clip-rule="evenodd" d="M9.60002 16.7995C8.93834 16.7995 8.40002 16.2611 8.40002 15.5995C8.40002 14.9377 8.93834 14.3995 9.60002 14.3995C10.2617 14.3995 10.8 14.9377 10.8 15.5995C10.8 16.2611 10.2617 16.7995 9.60002 16.7995Z" fill="#FFF7DB"/>
<path d="M41.4656 75.8012C41.2685 75.6697 41.0369 75.5996 40.8 75.5996H16.8L16.66 75.6077C16.0632 75.677 15.6 76.1842 15.6 76.7996L15.608 76.9396C15.6774 77.5364 16.1846 77.9996 16.8 77.9996H40.446L40.5661 78.0778C43.0148 79.6183 45.4977 80.3996 48 80.3996L48.4413 80.3915C50.7942 80.3051 53.1292 79.5277 55.4338 78.0778L55.5528 77.9996H79.2L79.3399 77.9915C79.9367 77.9222 80.4 77.415 80.4 76.7996C80.4 76.1369 79.8627 75.5996 79.2 75.5996H55.2L55.0587 75.608C54.8718 75.6301 54.692 75.696 54.5343 75.8012C52.3228 77.2755 50.1505 77.9996 48 77.9996C45.8495 77.9996 43.6772 77.2755 41.4656 75.8012Z" fill="#FED980"/>
<path d="M55.2 32.3996C55.2 31.7369 54.6627 31.1996 54 31.1996C53.3372 31.1996 52.8 31.7369 52.8 32.3996C52.8 33.0624 53.3372 33.5996 54 33.5996C54.6627 33.5996 55.2 33.0624 55.2 32.3996Z" fill="#FED980"/>
<path d="M55.2 39.5996C55.2 38.9369 54.6627 38.3996 54 38.3996C53.3372 38.3996 52.8 38.9369 52.8 39.5996C52.8 40.2624 53.3372 40.7996 54 40.7996C54.6627 40.7996 55.2 40.2624 55.2 39.5996Z" fill="#FED980"/>
<path d="M55.2 46.7996C55.2 46.1369 54.6627 45.5996 54 45.5996C53.3372 45.5996 52.8 46.1369 52.8 46.7996C52.8 47.4624 53.3372 47.9996 54 47.9996C54.6627 47.9996 55.2 47.4624 55.2 46.7996Z" fill="#FED980"/>
<path d="M55.2 53.9996C55.2 53.3369 54.6627 52.7996 54 52.7996C53.3372 52.7996 52.8 53.3369 52.8 53.9996C52.8 54.6624 53.3372 55.1996 54 55.1996C54.6627 55.1996 55.2 54.6624 55.2 53.9996Z" fill="#FED980"/>
<path d="M55.2 61.1996C55.2 60.5369 54.6627 59.9996 54 59.9996C53.3372 59.9996 52.8 60.5369 52.8 61.1996C52.8 61.8624 53.3372 62.3996 54 62.3996C54.6627 62.3996 55.2 61.8624 55.2 61.1996Z" fill="#FED980"/>
<path d="M24 28.7996C24 28.1369 23.4627 27.5996 22.8 27.5996C22.1372 27.5996 21.6 28.1369 21.6 28.7996C21.6 29.4624 22.1372 29.9996 22.8 29.9996C23.4627 29.9996 24 29.4624 24 28.7996Z" fill="#FED980"/>
<path d="M24 35.9996C24 35.3369 23.4627 34.7996 22.8 34.7996C22.1372 34.7996 21.6 35.3369 21.6 35.9996C21.6 36.6624 22.1372 37.1996 22.8 37.1996C23.4627 37.1996 24 36.6624 24 35.9996Z" fill="#FED980"/>
<path d="M24 43.1996C24 42.5369 23.4627 41.9996 22.8 41.9996C22.1372 41.9996 21.6 42.5369 21.6 43.1996C21.6 43.8624 22.1372 44.3996 22.8 44.3996C23.4627 44.3996 24 43.8624 24 43.1996Z" fill="#FED980"/>
<path d="M24 50.3996C24 49.7369 23.4627 49.1996 22.8 49.1996C22.1372 49.1996 21.6 49.7369 21.6 50.3996C21.6 51.0624 22.1372 51.5996 22.8 51.5996C23.4627 51.5996 24 51.0624 24 50.3996Z" fill="#FED980"/>
<path d="M24 57.5996C24 56.9369 23.4627 56.3996 22.8 56.3996C22.1372 56.3996 21.6 56.9369 21.6 57.5996C21.6 58.2624 22.1372 58.7996 22.8 58.7996C23.4627 58.7996 24 58.2624 24 57.5996Z" fill="#FED980"/>
<path fill-rule="evenodd" clip-rule="evenodd" d="M44.0485 72.8481C45.4259 71.4707 46.7256 70.8135 47.9603 70.7998C47.968 70.8 47.9757 70.8002 47.9835 70.8003C47.989 70.8004 47.9946 70.8004 48.0002 70.8004H48.0045C48.0162 70.8003 48.0279 70.8001 48.0395 70.7998C49.2743 70.8135 50.574 71.4706 51.9515 72.8481C52.1765 73.0731 52.4817 73.1996 52.8 73.1996H64.8L64.9399 73.1915C65.5367 73.1222 66 72.615 66 71.9996L65.9919 71.8596C65.9226 71.2628 65.4154 70.7996 64.8 70.7996H53.2824L53.075 70.6089C52.7752 70.3419 52.4733 70.0985 52.1694 69.8789L52.2409 69.8668L53.0247 69.7399L53.8472 69.6187L54.7084 69.5032L55.6083 69.3934L56.5468 69.2894L57.524 69.191L58.5398 69.0983L59.5941 69.0113L60.687 68.9301L61.8184 68.8547L63.5876 68.7523L65.4434 68.6628L66.7286 68.6104L68.0522 68.5638L69.4141 68.523L71.5289 68.4726L73.7299 68.4354L76.0169 68.4113L78.3899 68.4003C78.6583 68.3998 78.9284 68.3996 79.2 68.3996C79.8627 68.3996 80.4 67.8623 80.4 67.1996V22.6193L82.8012 25.6196L82.8 47.9996C82.8 48.615 83.2633 49.1222 83.8601 49.1915L84 49.1996C84.6154 49.1996 85.1226 48.7363 85.192 48.1395L85.2 47.9996V25.1996C85.2 24.9816 85.1407 24.7688 85.0298 24.5834L84.9371 24.4499L80.1582 18.4763C79.9537 18.2054 79.6365 18.0233 79.2734 18.001C66.3734 17.2103 55.9478 18.7455 48 22.6381C40.0522 18.7455 29.6266 17.2103 16.7266 18.001C16.363 18.0233 16.0455 18.2058 15.841 18.4773L11.0629 24.4499L10.9702 24.5834C10.8593 24.7688 10.8 24.9816 10.8 25.1996V31.1996L10.8081 31.3395C10.8774 31.9363 11.3846 32.3996 12 32.3996L12.1399 32.3915C12.7367 32.3222 13.2 31.815 13.2 31.1996L13.1988 25.6196L15.6 22.6193V67.1996C15.6 67.8623 16.1372 68.3996 16.8 68.3996C17.0716 68.3996 17.3416 68.3998 17.6101 68.4003L19.9831 68.4113L22.2701 68.4354L24.471 68.4726L26.5858 68.523L27.9478 68.5638L29.2714 68.6104L30.5566 68.6628L32.4123 68.7523L34.1816 68.8547L35.313 68.9301L36.4059 69.0113L37.4602 69.0983L38.476 69.191L39.4531 69.2894L40.3917 69.3934L41.2916 69.5032L42.1528 69.6187L42.9753 69.7399L43.7591 69.8668L43.8306 69.8789C43.5266 70.0985 43.2248 70.3419 42.925 70.6089L42.7164 70.7996H13.2V67.1996L13.1919 67.0596C13.1226 66.4628 12.6154 65.9996 12 65.9996C11.3372 65.9996 10.8 66.5368 10.8 67.1996V71.9996L10.8081 72.1395C10.8774 72.7363 11.3846 73.1996 12 73.1996H43.2L43.3577 73.1892C43.6178 73.1547 43.861 73.0356 44.0485 72.8481ZM46.8 68.0324V24.7232L46.4272 24.5455C39.3046 21.2025 30.018 19.7808 18.5649 20.3058L18 20.3336V66.0008L19.2549 66.0064L21.6537 66.0272L23.962 66.062L25.4507 66.093L26.8992 66.1303L28.9968 66.198L30.3451 66.251L31.6534 66.3102L32.9217 66.3758L34.15 66.4477L35.3383 66.5259L36.4868 66.6104L37.5953 66.7013L38.6639 66.7985L39.6927 66.902L40.6817 67.012L41.6309 67.1283L42.5404 67.251C42.6886 67.2719 42.8352 67.2932 42.9802 67.3147L43.8301 67.447L44.6402 67.5857L45.4107 67.7308L46.1416 67.8823L46.8 68.0324ZM49.8583 67.8823L49.2 68.0324V24.7232L49.5727 24.5455C56.6954 21.2025 65.9819 19.7808 77.435 20.3058L78 20.3336V66.0008L76.7451 66.0064L74.3463 66.0272L72.038 66.062L70.5493 66.093L69.1008 66.1303L67.0031 66.198L65.6548 66.251L64.3465 66.3102L63.0783 66.3758L61.85 66.4477L60.6616 66.5259L59.5132 66.6104L58.4047 66.7013L57.336 66.7985L56.3072 66.902L55.3183 67.012L54.369 67.1283L53.4596 67.251C53.3113 67.2719 53.1647 67.2932 53.0198 67.3147L52.1699 67.447L51.3597 67.5857L50.5892 67.7308L49.8583 67.8823Z" fill="#0D0C21"/>
<path d="M85.1919 55.0596C85.1226 54.4628 84.6154 53.9996 84 53.9996L83.86 54.0076C83.2632 54.0769 82.8 54.5842 82.8 55.1996V70.7996H74.4L74.26 70.8076C73.6632 70.8769 73.2 71.3842 73.2 71.9996C73.2 72.6623 73.7372 73.1996 74.4 73.1996H84L84.1399 73.1915C84.7367 73.1222 85.2 72.615 85.2 71.9996V55.1996L85.1919 55.0596Z" fill="#0D0C21"/>
<path d="M12 37.1996C12.6154 37.1996 13.1226 37.6628 13.1919 38.2596L13.2 38.3996V59.9996C13.2 60.6623 12.6627 61.1996 12 61.1996C11.3846 61.1996 10.8774 60.7363 10.8081 60.1395L10.8 59.9996V38.3996C10.8 37.7368 11.3372 37.1996 12 37.1996Z" fill="#0D0C21"/>
<path d="M74.4 28.7995C74.4 28.1368 73.8627 27.5995 73.2 27.5995C71.9408 27.5995 70.4565 27.7167 68.745 27.9506L67.789 28.0897C67.2997 28.1651 66.7934 28.2491 66.2702 28.3419L65.2012 28.5389L64.0868 28.759L62.927 29.0022L61.7217 29.2686C61.517 29.3149 61.3104 29.3622 61.102 29.4104L59.8283 29.7114L58.5089 30.0354C57.866 30.1961 57.4751 30.8476 57.6358 31.4906C57.7966 32.1335 58.4481 32.5245 59.091 32.3637C59.3087 32.3093 59.5245 32.2558 59.7384 32.2033L60.9988 31.8994L62.2136 31.618C62.4123 31.573 62.609 31.529 62.8038 31.4858L63.95 31.2384L65.0502 31.0135L66.1045 30.8111L67.1128 30.6313C67.277 30.6032 67.4393 30.576 67.5996 30.5498L68.5387 30.4037C68.8441 30.3588 69.1417 30.3176 69.4316 30.2802L70.2782 30.1791C71.376 30.0594 72.3503 29.9995 73.2 29.9995C73.8627 29.9995 74.4 29.4623 74.4 28.7995Z" fill="#0D0C21"/>
<path d="M73.2 34.7995C73.8627 34.7995 74.4 35.3368 74.4 35.9995C74.4 36.6623 73.8627 37.1995 73.2 37.1995C72.3503 37.1995 71.376 37.2594 70.2782 37.3791L69.4316 37.4802C69.1417 37.5176 68.8441 37.5588 68.5387 37.6037L67.5996 37.7498C67.4393 37.776 67.277 37.8032 67.1128 37.8313L66.1045 38.0111L65.0502 38.2135L63.95 38.4384L62.8038 38.6858C62.609 38.729 62.4123 38.773 62.2136 38.818L60.9988 39.0994L59.7384 39.4033C59.5245 39.4558 59.3087 39.5093 59.091 39.5637C58.4481 39.7245 57.7966 39.3335 57.6358 38.6906C57.4751 38.0476 57.866 37.3961 58.5089 37.2354L59.8283 36.9114L61.102 36.6104C61.3104 36.5622 61.517 36.5149 61.7217 36.4686L62.927 36.2022L64.0868 35.959L65.2012 35.7389L66.2702 35.5419C66.7934 35.4491 67.2997 35.3651 67.789 35.2897L68.745 35.1506C70.4565 34.9167 71.9408 34.7995 73.2 34.7995Z" fill="#0D0C21"/>
<path d="M74.4 43.1995C74.4 42.5368 73.8627 41.9995 73.2 41.9995C71.9408 41.9995 70.4565 42.1167 68.745 42.3506L67.789 42.4897C67.2997 42.5651 66.7934 42.6491 66.2702 42.7419L65.2012 42.9389L64.0868 43.159L62.927 43.4022L61.7217 43.6686C61.517 43.7149 61.3104 43.7622 61.102 43.8104L59.8283 44.1114L58.5089 44.4354C57.866 44.5961 57.4751 45.2476 57.6358 45.8906C57.7966 46.5335 58.4481 46.9245 59.091 46.7637C59.3087 46.7093 59.5245 46.6558 59.7384 46.6033L60.9988 46.2994L62.2136 46.018C62.4123 45.973 62.609 45.929 62.8038 45.8858L63.95 45.6384L65.0502 45.4135L66.1045 45.2111L67.1128 45.0313C67.277 45.0032 67.4393 44.976 67.5996 44.9498L68.5387 44.8037C68.8441 44.7588 69.1417 44.7176 69.4316 44.6802L70.2782 44.5791C71.376 44.4594 72.3503 44.3995 73.2 44.3995C73.8627 44.3995 74.4 43.8623 74.4 43.1995Z" fill="#0D0C21"/>
<path d="M73.2 49.1995C73.8627 49.1995 74.4 49.7368 74.4 50.3995C74.4 51.0623 73.8627 51.5995 73.2 51.5995C72.3503 51.5995 71.376 51.6594 70.2782 51.7791L69.4316 51.8802C69.1417 51.9176 68.8441 51.9588 68.5387 52.0037L67.5996 52.1498C67.4393 52.176 67.277 52.2032 67.1128 52.2313L66.1045 52.4111L65.0502 52.6135L63.95 52.8384L62.8038 53.0858C62.609 53.129 62.4123 53.173 62.2136 53.218L60.9988 53.4994L59.7384 53.8033C59.5245 53.8558 59.3087 53.9093 59.091 53.9637C58.4481 54.1245 57.7966 53.7335 57.6358 53.0906C57.4751 52.4476 57.866 51.7961 58.5089 51.6354L59.8283 51.3114L61.102 51.0104C61.3104 50.9622 61.517 50.9149 61.7217 50.8686L62.927 50.6022L64.0868 50.359L65.2012 50.1389L66.2702 49.9418C66.7934 49.8491 67.2997 49.7651 67.789 49.6897L68.745 49.5506C70.4565 49.3167 71.9408 49.1995 73.2 49.1995Z" fill="#0D0C21"/>
<path d="M74.4 57.5995C74.4 56.9368 73.8627 56.3995 73.2 56.3995C71.9408 56.3995 70.4565 56.5167 68.745 56.7505L67.789 56.8897C67.2997 56.9651 66.7934 57.0491 66.2702 57.1418L65.2012 57.3389L64.0868 57.559L62.927 57.8022L61.7217 58.0686C61.517 58.1149 61.3104 58.1622 61.102 58.2104L59.8283 58.5114L58.5089 58.8354C57.866 58.9961 57.4751 59.6476 57.6358 60.2906C57.7966 60.9335 58.4481 61.3245 59.091 61.1637C59.3087 61.1093 59.5245 61.0558 59.7384 61.0033L60.9988 60.6994L62.2136 60.418C62.4123 60.373 62.609 60.329 62.8038 60.2858L63.95 60.0384L65.0502 59.8135L66.1045 59.6111L67.1128 59.4313C67.277 59.4032 67.4393 59.376 67.5996 59.3498L68.5387 59.2037C68.8441 59.1588 69.1417 59.1176 69.4316 59.0802L70.2782 58.9791C71.376 58.8594 72.3503 58.7995 73.2 58.7995C73.8627 58.7995 74.4 58.2623 74.4 57.5995Z" fill="#0D0C21"/>
<path d="M26.3997 28.7995C26.3997 28.1368 26.937 27.5995 27.5997 27.5995C28.8589 27.5995 30.3432 27.7167 32.0546 27.9506L33.0107 28.0897C33.5 28.1651 34.0063 28.2491 34.5295 28.3419L35.5985 28.5389L36.7129 28.759L37.8727 29.0022L39.078 29.2686C39.2827 29.3149 39.4893 29.3622 39.6977 29.4104L40.9714 29.7114L42.2907 30.0354C42.9337 30.1961 43.3246 30.8476 43.1639 31.4906C43.0031 32.1335 42.3516 32.5245 41.7087 32.3637C41.491 32.3093 41.2752 32.2558 41.0613 32.2033L39.8009 31.8994L38.5861 31.618C38.3874 31.573 38.1907 31.529 37.9958 31.4858L36.8497 31.2384L35.7495 31.0135L34.6952 30.8111L33.6869 30.6313C33.5227 30.6032 33.3604 30.576 33.2 30.5498L32.261 30.4037C31.9556 30.3588 31.658 30.3176 31.3681 30.2802L30.5215 30.1791C29.4236 30.0594 28.4494 29.9995 27.5997 29.9995C26.937 29.9995 26.3997 29.4623 26.3997 28.7995Z" fill="#0D0C21"/>
<path d="M27.5997 34.7995C26.937 34.7995 26.3997 35.3368 26.3997 35.9995C26.3997 36.6623 26.937 37.1995 27.5997 37.1995C28.4494 37.1995 29.4236 37.2594 30.5215 37.3791L31.3681 37.4802C31.658 37.5176 31.9556 37.5588 32.261 37.6037L33.2 37.7498C33.3604 37.776 33.5227 37.8032 33.6869 37.8313L34.6952 38.0111L35.7495 38.2135L36.8497 38.4384L37.9958 38.6858C38.1907 38.729 38.3874 38.773 38.5861 38.818L39.8009 39.0994L41.0613 39.4033C41.2752 39.4558 41.491 39.5093 41.7087 39.5637C42.3516 39.7245 43.0031 39.3335 43.1639 38.6906C43.3246 38.0476 42.9337 37.3961 42.2907 37.2354L40.9714 36.9114L39.6977 36.6104C39.4893 36.5622 39.2827 36.5149 39.078 36.4686L37.8727 36.2022L36.7129 35.959L35.5985 35.7389L34.5295 35.5419C34.0063 35.4491 33.5 35.3651 33.0107 35.2897L32.0546 35.1506C30.3432 34.9167 28.8589 34.7995 27.5997 34.7995Z" fill="#0D0C21"/>
<path d="M26.3997 43.1995C26.3997 42.5368 26.937 41.9995 27.5997 41.9995C28.8589 41.9995 30.3432 42.1167 32.0546 42.3506L33.0107 42.4897C33.5 42.5651 34.0063 42.6491 34.5295 42.7419L35.5985 42.9389L36.7129 43.159L37.8727 43.4022L39.078 43.6686C39.2827 43.7149 39.4893 43.7622 39.6977 43.8104L40.9714 44.1114L42.2907 44.4354C42.9337 44.5961 43.3246 45.2476 43.1639 45.8906C43.0031 46.5335 42.3516 46.9245 41.7087 46.7637C41.491 46.7093 41.2752 46.6558 41.0613 46.6033L39.8009 46.2994L38.5861 46.018C38.3874 45.973 38.1907 45.929 37.9958 45.8858L36.8497 45.6384L35.7495 45.4135L34.6952 45.2111L33.6869 45.0313C33.5227 45.0032 33.3604 44.976 33.2 44.9498L32.261 44.8037C31.9556 44.7588 31.658 44.7176 31.3681 44.6802L30.5215 44.5791C29.4236 44.4594 28.4494 44.3995 27.5997 44.3995C26.937 44.3995 26.3997 43.8623 26.3997 43.1995Z" fill="#0D0C21"/>
<path d="M27.5997 49.1995C26.937 49.1995 26.3997 49.7368 26.3997 50.3995C26.3997 51.0623 26.937 51.5995 27.5997 51.5995C28.4494 51.5995 29.4236 51.6594 30.5215 51.7791L31.3681 51.8802C31.658 51.9176 31.9556 51.9588 32.261 52.0037L33.2 52.1498C33.3604 52.176 33.5227 52.2032 33.6869 52.2313L34.6952 52.4111L35.7495 52.6135L36.8497 52.8384L37.9958 53.0858C38.1907 53.129 38.3874 53.173 38.5861 53.218L39.8009 53.4994L41.0613 53.8033C41.2752 53.8558 41.491 53.9093 41.7087 53.9637C42.3516 54.1245 43.0031 53.7335 43.1639 53.0906C43.3246 52.4476 42.9337 51.7961 42.2907 51.6354L40.9714 51.3114L39.6977 51.0104C39.4893 50.9622 39.2827 50.9149 39.078 50.8686L37.8727 50.6022L36.7129 50.359L35.5985 50.1389L34.5295 49.9418C34.0063 49.8491 33.5 49.7651 33.0107 49.6897L32.0546 49.5506C30.3432 49.3167 28.8589 49.1995 27.5997 49.1995Z" fill="#0D0C21"/>
<path d="M26.3997 57.5995C26.3997 56.9368 26.937 56.3995 27.5997 56.3995C28.8589 56.3995 30.3432 56.5167 32.0546 56.7505L33.0107 56.8897C33.5 56.9651 34.0063 57.0491 34.5295 57.1418L35.5985 57.3389L36.7129 57.559L37.8727 57.8022L39.078 58.0686C39.2827 58.1149 39.4893 58.1622 39.6977 58.2104L40.9714 58.5114L42.2907 58.8354C42.9337 58.9961 43.3246 59.6476 43.1639 60.2906C43.0031 60.9335 42.3516 61.3245 41.7087 61.1637C41.491 61.1093 41.2752 61.0558 41.0613 61.0033L39.8009 60.6994L38.5861 60.418C38.3874 60.373 38.1907 60.329 37.9958 60.2858L36.8497 60.0384L35.7495 59.8135L34.6952 59.6111L33.6869 59.4313C33.5227 59.4032 33.3604 59.376 33.2 59.3498L32.261 59.2037C31.9556 59.1588 31.658 59.1176 31.3681 59.0802L30.5215 58.9791C29.4236 58.8594 28.4494 58.7995 27.5997 58.7995C26.937 58.7995 26.3997 58.2623 26.3997 57.5995Z" fill="#0D0C21"/>
</svg>

<svg xmlns="http://www.w3.org/2000/svg" width="96" height="96" fill="none"><path fill="#FFF7DB" fill-rule="evenodd" d="M70.8 91.2A1.201 1.201 0 1 1 72 90c0 .662-.538 1.2-1.2 1.2m9.6-81.6a1.201 1.201 0 1 1 1.2-1.2c0 .662-.538 1.2-1.2 1.2M9.6 16.8a1.201 1.201 0 1 1 1.2-1.2c0 .662-.538 1.2-1.2 1.2" clip-rule="evenodd"/><path fill="#FED980" d="M41.466 75.801a1.2 1.2 0 0 0-.666-.201h-24l-.14.008A1.2 1.2 0 0 0 15.6 76.8l.008.14A1.2 1.2 0 0 0 16.8 78h23.646l.12.078C43.015 79.618 45.498 80.4 48 80.4l.441-.009c2.353-.086 4.688-.863 6.993-2.313l.119-.078H79.2l.14-.008a1.2 1.2 0 0 0-.14-2.392h-24l-.141.008a1.2 1.2 0 0 0-.525.193C52.323 77.275 50.151 78 48 78s-4.323-.725-6.534-2.199M55.2 32.4a1.2 1.2 0 1 0-2.4 0 1.2 1.2 0 0 0 2.4 0m0 7.2a1.2 1.2 0 1 0-2.4 0 1.2 1.2 0 0 0 2.4 0m0 7.2a1.2 1.2 0 1 0-2.4 0 1.2 1.2 0 0 0 2.4 0m0 7.2a1.2 1.2 0 1 0-2.4 0 1.2 1.2 0 0 0 2.4 0m0 7.2a1.2 1.2 0 1 0-2.4 0 1.2 1.2 0 0 0 2.4 0M24 28.8a1.2 1.2 0 1 0-2.4 0 1.2 1.2 0 0 0 2.4 0m0 7.2a1.2 1.2 0 1 0-2.4 0 1.2 1.2 0 0 0 2.4 0m0 7.2a1.2 1.2 0 1 0-2.4 0 1.2 1.2 0 0 0 2.4 0m0 7.2a1.2 1.2 0 1 0-2.4 0 1.2 1.2 0 0 0 2.4 0m0 7.2a1.2 1.2 0 1 0-2.4 0 1.2 1.2 0 0 0 2.4 0"/><path fill="#0D0C21" fill-rule="evenodd" d="M44.049 72.848c1.377-1.377 2.677-2.034 3.911-2.048h.079c1.235.014 2.535.67 3.913 2.048a1.2 1.2 0 0 0 .848.352h12l.14-.008A1.2 1.2 0 0 0 66 72l-.008-.14A1.2 1.2 0 0 0 64.8 70.8H53.282l-.207-.191q-.45-.4-.906-.73l.072-.012.784-.127.822-.121.861-.116.9-.11.939-.104.977-.098 1.016-.093 1.054-.087 1.093-.08 1.131-.076 1.77-.103 1.855-.09 1.286-.052 1.323-.046 1.362-.041 2.115-.05 2.2-.038 2.288-.024 2.373-.01.81-.001a1.2 1.2 0 0 0 1.2-1.2V22.62l2.401 3L82.8 48a1.2 1.2 0 0 0 1.06 1.191l.14.009a1.2 1.2 0 0 0 1.192-1.06L85.2 48V25.2a1.2 1.2 0 0 0-.17-.617l-.093-.133-4.779-5.974a1.2 1.2 0 0 0-.885-.475c-12.9-.79-23.325.744-31.273 4.637-7.948-3.893-18.373-5.428-31.273-4.637a1.2 1.2 0 0 0-.886.476l-4.778 5.973-.093.133a1.2 1.2 0 0 0-.17.617v6l.008.14A1.2 1.2 0 0 0 12 32.4l.14-.008A1.2 1.2 0 0 0 13.2 31.2l-.001-5.58 2.401-3V67.2a1.2 1.2 0 0 0 1.2 1.2h.81l2.373.011 2.287.024 2.201.038 2.115.05 1.362.04 1.323.047 1.286.053 1.855.09 1.77.102 1.131.075 1.093.081 1.054.087 1.016.093.977.098.939.104.9.11.86.116.823.12.784.128.072.012q-.456.33-.906.73l-.209.19H13.2v-3.6l-.008-.14a1.2 1.2 0 0 0-2.392.14V72l.008.14A1.2 1.2 0 0 0 12 73.2h31.2l.158-.01a1.2 1.2 0 0 0 .69-.34m2.751-4.816V24.723l-.373-.177c-7.122-3.343-16.409-4.765-27.862-4.24l-.565.028V66l1.255.005 2.399.021 2.308.035 1.489.031 1.448.037 2.098.068 1.348.053 1.308.06 1.269.065 1.228.072 1.188.078 1.149.084 1.108.091 1.069.098 1.029.103.989.11.949.116.91.123q.221.03.44.064l.85.132.81.139.77.145.73.151zm3.058-.15-.658.15V24.723l.373-.177c7.122-3.343 16.409-4.765 27.862-4.24l.565.028V66l-1.255.005-2.399.021-2.308.035-1.489.031-1.448.037-2.098.068-1.348.053-1.308.06-1.269.065-1.228.072-1.188.078-1.149.084-1.108.091-1.069.098-1.029.103-.989.11-.949.116-.91.123q-.221.03-.44.064l-.85.132-.81.139-.77.145z" clip-rule="evenodd"/><path fill="#0D0C21" d="M85.192 55.06A1.2 1.2 0 0 0 84 54l-.14.008A1.2 1.2 0 0 0 82.8 55.2v15.6h-8.4l-.14.008a1.2 1.2 0 0 0 .14 2.392H84l.14-.008A1.2 1.2 0 0 0 85.2 72V55.2zM12 37.2a1.2 1.2 0 0 1 1.192 1.06l.008.14V60a1.2 1.2 0 0 1-2.392.14L10.8 60V38.4a1.2 1.2 0 0 1 1.2-1.2m62.4-8.4a1.2 1.2 0 0 0-1.2-1.2q-1.888 0-4.455.35l-.956.14q-.735.113-1.519.252l-1.069.197-1.114.22-1.16.243-1.205.267-.62.141-1.274.301-1.32.324a1.2 1.2 0 0 0 .583 2.329q.327-.082.647-.16l1.26-.305 1.216-.281.59-.132 1.146-.248 1.1-.224 1.055-.203 1.008-.18.487-.081.939-.146q.458-.067.893-.124l.846-.1Q71.925 30 73.2 30a1.2 1.2 0 0 0 1.2-1.2m-1.2 6a1.2 1.2 0 0 1 0 2.4q-1.275 0-2.922.18l-.846.1q-.435.057-.893.124l-.94.146-.486.081-1.008.18-1.055.203-1.1.224-1.146.248-.59.132-1.215.281-1.26.304-.648.16a1.2 1.2 0 0 1-.582-2.328l1.32-.324 1.273-.3q.312-.073.62-.142l1.205-.267 1.16-.243 1.114-.22 1.07-.197q.784-.14 1.518-.252l.956-.14q2.567-.35 4.455-.35m1.2 8.4a1.2 1.2 0 0 0-1.2-1.2q-1.888 0-4.455.35l-.956.14q-.735.113-1.519.252l-1.069.197-1.114.22-1.16.243-1.205.267-.62.141-1.274.301-1.32.324a1.2 1.2 0 0 0 .583 2.329q.327-.082.647-.16l1.26-.305 1.216-.281.59-.132 1.146-.248 1.1-.224 1.055-.203 1.008-.18.487-.081.939-.146q.458-.067.893-.124l.846-.1q1.647-.18 2.922-.18a1.2 1.2 0 0 0 1.2-1.2m-1.2 6a1.2 1.2 0 0 1 0 2.4q-1.275 0-2.922.18l-.846.1q-.435.057-.893.124l-.94.146-.486.081-1.008.18-1.055.203-1.1.224-1.146.248-.59.132-1.215.281-1.26.304-.648.16a1.2 1.2 0 0 1-.582-2.328l1.32-.324 1.273-.3q.312-.073.62-.142l1.205-.267 1.16-.243 1.114-.22 1.07-.197q.784-.14 1.518-.252l.956-.14q2.567-.35 4.455-.35m1.2 8.4a1.2 1.2 0 0 0-1.2-1.2q-1.888 0-4.455.35l-.956.14q-.735.113-1.519.252l-1.069.197-1.114.22-1.16.243-1.205.267-.62.141-1.274.301-1.32.324a1.2 1.2 0 0 0 .583 2.329q.327-.082.647-.16l1.26-.305 1.216-.281.59-.132 1.146-.248 1.1-.224 1.055-.203 1.008-.18.487-.081.939-.146q.458-.067.893-.124l.846-.1q1.647-.18 2.922-.18a1.2 1.2 0 0 0 1.2-1.2m-48-28.8a1.2 1.2 0 0 1 1.2-1.2q1.888 0 4.455.35l.956.14q.733.113 1.518.252l1.07.197 1.114.22 1.16.243 1.205.267.62.141 1.273.301 1.32.324a1.2 1.2 0 1 1-.582 2.329q-.327-.082-.648-.16l-1.26-.305-1.215-.281-.59-.132-1.146-.248-1.1-.224-1.055-.203-1.008-.18-.487-.081-.939-.146a51 51 0 0 0-.893-.124l-.846-.1A27 27 0 0 0 27.6 30a1.2 1.2 0 0 1-1.2-1.2m1.2 6a1.2 1.2 0 0 0 0 2.4q1.275 0 2.921.18l.847.1q.435.057.893.124l.939.146.487.081 1.008.18 1.054.203 1.1.224 1.147.248.59.132 1.215.281 1.26.304.648.16a1.2 1.2 0 1 0 .582-2.328l-1.32-.324-1.273-.3-.62-.142-1.205-.267-1.16-.243-1.114-.22-1.07-.197a68 68 0 0 0-1.518-.252l-.956-.14q-2.567-.35-4.455-.35m-1.2 8.4a1.2 1.2 0 0 1 1.2-1.2q1.888 0 4.455.35l.956.14q.733.113 1.518.252l1.07.197 1.114.22 1.16.243 1.205.267.62.141 1.273.301 1.32.324a1.2 1.2 0 1 1-.582 2.329q-.327-.082-.648-.16l-1.26-.305-1.215-.281-.59-.132-1.146-.248-1.1-.224-1.055-.203-1.008-.18-.487-.081-.939-.146a51 51 0 0 0-.893-.124l-.846-.1a27 27 0 0 0-2.922-.18 1.2 1.2 0 0 1-1.2-1.2m1.2 6a1.2 1.2 0 0 0 0 2.4q1.275 0 2.921.18l.847.1q.435.057.893.124l.939.146.487.081 1.008.18 1.054.203 1.1.224 1.147.248.59.132 1.215.281 1.26.304.648.16a1.2 1.2 0 1 0 .582-2.328l-1.32-.324-1.273-.3-.62-.142-1.205-.267-1.16-.243-1.114-.22-1.07-.197a69 69 0 0 0-1.518-.252l-.956-.14q-2.567-.35-4.455-.35m-1.2 8.4a1.2 1.2 0 0 1 1.2-1.2q1.888 0 4.455.35l.956.14q.733.113 1.518.252l1.07.197 1.114.22 1.16.243 1.205.267.62.141 1.273.301 1.32.324a1.2 1.2 0 1 1-.582 2.329q-.327-.082-.648-.16l-1.26-.305-1.215-.281-.59-.132-1.146-.248-1.1-.224-1.055-.203-1.008-.18-.487-.081-.939-.146a51 51 0 0 0-.893-.124l-.846-.1a27 27 0 0 0-2.922-.18 1.2 1.2 0 0 1-1.2-1.2"/></svg>
